public/landingpage/icons/share.svg

<svg xmlns="http://www.w3.org/2000/svg"  viewBox="0 0 26 26" width="208px" height="208px"><path d="M 21 0 C 18.238281 0 16 2.238281 16 5 C 16 5.085938 16.027344 5.164063 16.03125 5.25 L 8.1875 9.1875 C 7.320313 8.457031 6.222656 8 5 8 C 2.238281 8 0 10.238281 0 13 C 0 15.761719 2.238281 18 5 18 C 6.222656 18 7.320313 17.542969 8.1875 16.8125 L 16.03125 20.75 C 16.027344 20.835938 16 20.914063 16 21 C 16 23.761719 18.238281 26 21 26 C 23.761719 26 26 23.761719 26 21 C 26 18.238281 23.761719 16 21 16 C 19.777344 16 18.679688 16.457031 17.8125 17.1875 L 9.96875 13.25 C 9.972656 13.164063 10 13.085938 10 13 C 10 12.914063 9.972656 12.835938 9.96875 12.75 L 17.8125 8.8125 C 18.679688 9.542969 19.777344 10 21 10 C 23.761719 10 26 7.761719 26 5 C 26 2.238281 23.761719 0 21 0 Z"/></svg>

<svg xmlns="http://www.w3.org/2000/svg" xmlns:xlink="http://www.w3.org/1999/xlink" viewBox="0,0,256,256" width="208px" height="208px" fill-rule="nonzero"><g fill="#ffffff" fill-rule="nonzero" stroke="none" stroke-width="1" stroke-linecap="butt" stroke-linejoin="miter" stroke-miterlimit="10" stroke-dasharray="" stroke-dashoffset="0" font-family="none" font-weight="none" font-size="none" text-anchor="none" style="mix-blend-mode: normal"><g transform="scale(9.84615,9.84615)"><path d="M21,0c-2.76172,0 -5,2.23828 -5,5c0,0.08594 0.02734,0.16406 0.03125,0.25l-7.84375,3.9375c-0.86719,-0.73047 -1.96484,-1.1875 -3.1875,-1.1875c-2.76172,0 -5,2.23828 -5,5c0,2.76172 2.23828,5 5,5c1.22266,0 2.32031,-0.45703 3.1875,-1.1875l7.84375,3.9375c-0.00391,0.08594 -0.03125,0.16406 -0.03125,0.25c0,2.76172 2.23828,5 5,5c2.76172,0 5,-2.23828 5,-5c0,-2.76172 -2.23828,-5 -5,-5c-1.22266,0 -2.32031,0.45703 -3.1875,1.1875l-7.84375,-3.9375c0.00391,-0.08594 0.03125,-0.16406 0.03125,-0.25c0,-0.08594 -0.02734,-0.16406 -0.03125,-0.25l7.84375,-3.9375c0.86719,0.73047 1.96484,1.1875 3.1875,1.1875c2.76172,0 5,-2.23828 5,-5c0,-2.76172 -2.23828,-5 -5,-5z"></path></g></g></svg>
